X: 16193
T: Green Shades Of Gask, The
R: jig
M: 6/8
K: Gmajor
|:~G3 BAB|gag f2e|dgg Bgg|aAA ABA|
~G3 BAB|gag f2e|dcB ABc|1 BGF GED:|2 BGF GBd||
~g3 gfe|aba agf|~g3 aga|bge e2f|
~g3 gfe|aba agf|g2d edc|BGF G2d|
~g3 gfe|aba agf|~g3 aga|bge e2f|
gbb egg|ded g2e|dcB ABc|BGF GED||

